X:1
T:Welcome Whiskey Back Again    [C]
T:Welcome Whiskey Back Again    [C]
T:Niel Gow
C:Niel Gow
L:1/8
M:4/4
K:C
V:1 treble 
V:1
"C" C<c c>e d>c d>e |"F" c<d A>c"G" G>E D2 |"C" C<c c>e"C7" d>c d>e |"F" c<G A<c"G" G>E"C" C2 :| %4
"C" e<g g>a g>e d>c |"C" e<g g>a"G" g<e d2 |"C" c<g g>a"Am" g<e d>e |"F" c<G A<c"G" G>E D2 |] %8
"C" e<g g>a g<e d>c |"C" e<g g>a"G" g>e d>f |"C" e<g"G7" d<f"Am" c>d e>d | %11
"F" c>G A<c"G" G>E"C" C2 |] %12

